localPackages/DesignSystem/Sources/DesignSystem/Resources/Assets.xcassets/IconSet/ic-file-arrow-in-up.imageset/ic-file-arrow-in-up.svg

<svg width="24" height="24" viewBox="0 0 24 24" fill="none" xmlns="http://www.w3.org/2000/svg">
<g id="ic-file-arrow-in-up">
<path id="Icon" fill-rule="evenodd" clip-rule="evenodd" d="M6.75 3C5.50736 3 4.5 4.00736 4.5 5.25V18.75C4.5 19.9926 5.50736 21 6.75 21H9V22.5H6.75C4.67893 22.5 3 20.8211 3 18.75V5.25C3 3.17893 4.67893 1.5 6.75 1.5H13.7574C14.7519 1.5 15.7057 1.89509 16.409 2.59835L19.9017 6.09099C20.6049 6.79425 21 7.74808 21 8.74264V18.75C21 20.8211 19.3211 22.5 17.25 22.5H15V21H17.25C18.4926 21 19.5 19.9926 19.5 18.75V9H15.75C14.5074 9 13.5 7.99264 13.5 6.75V3H6.75ZM15 3.37426V6.75C15 7.16421 15.3358 7.5 15.75 7.5H19.1257C19.0433 7.37557 18.9481 7.25877 18.841 7.15165L15.3483 3.65901C15.2412 3.55189 15.1244 3.4567 15 3.37426ZM11.2575 10.9318C11.6676 10.5217 12.3324 10.5217 12.7425 10.9318L15.5303 13.7196C15.8232 14.0125 15.8232 14.4874 15.5303 14.7803C15.2374 15.0732 14.7626 15.0732 14.4697 14.7803L12.75 13.0606V21.75C12.75 22.1642 12.4142 22.5 12 22.5C11.5858 22.5 11.25 22.1642 11.25 21.75V13.0606L9.53033 14.7803C9.23744 15.0732 8.76256 15.0732 8.46967 14.7803C8.17678 14.4874 8.17678 14.0125 8.46967 13.7196L11.2575 10.9318Z" fill="#0F0F0F"/>
</g>
</svg>

<svg xmlns="http://www.w3.org/2000/svg" width="24" height="24" viewBox="0 0 24 24">
  <g class="ic-file-arrow-in-up">
    <path fill-rule="evenodd" d="M6.75 3A2.25 2.25 0 0 0 4.5 5.25v13.5A2.25 2.25 0 0 0 6.75 21H9v1.5H6.75A3.75 3.75 0 0 1 3 18.75V5.25A3.75 3.75 0 0 1 6.75 1.5h7.007a3.75 3.75 0 0 1 2.652 1.098l3.493 3.493A3.75 3.75 0 0 1 21 8.743V18.75a3.75 3.75 0 0 1-3.75 3.75H15V21h2.25a2.25 2.25 0 0 0 2.25-2.25V9h-3.75a2.25 2.25 0 0 1-2.25-2.25V3H6.75Zm8.25.374V6.75c0 .414.336.75.75.75h3.376a2.249 2.249 0 0 0-.285-.348l-3.493-3.493A2.25 2.25 0 0 0 15 3.374Zm-3.742 7.558a1.05 1.05 0 0 1 1.485 0l2.787 2.788a.75.75 0 0 1-1.06 1.06l-1.72-1.72v8.69a.75.75 0 0 1-1.5 0v-8.69l-1.72 1.72a.75.75 0 1 1-1.06-1.06l2.787-2.788Z" class="Icon"/>
  </g>
</svg>
